artwork/resources/intui/icons/shell/filetree/config-file.svg

<svg width="16" height="16" viewBox="0 0 16 16" fill="none" xmlns="http://www.w3.org/2000/svg">
<path fill-rule="evenodd" clip-rule="evenodd" d="M12.0606 10.3535C11.8654 10.1583 11.5488 10.1583 11.3535 10.3535C11.1583 10.5488 11.1583 10.8654 11.3535 11.0606L13.0459 12.7531L11.3536 14.4454C11.1583 14.6407 11.1583 14.9573 11.3536 15.1526C11.5488 15.3478 11.8654 15.3478 12.0607 15.1526L14.1066 13.1066C14.3012 12.912 14.3018 12.597 14.1086 12.4015C14.1069 12.3998 14.1052 12.3981 14.1035 12.3964L12.0606 10.3535Z" fill="#3DDC84"/>
<path fill-rule="evenodd" clip-rule="evenodd" d="M12.0606 10.3535C11.8654 10.1583 11.5488 10.1583 11.3535 10.3535C11.1583 10.5488 11.1583 10.8654 11.3535 11.0606L13.0459 12.7531L11.3536 14.4454C11.1583 14.6407 11.1583 14.9573 11.3536 15.1526C11.5488 15.3478 11.8654 15.3478 12.0607 15.1526L14.1066 13.1066C14.3012 12.912 14.3018 12.597 14.1086 12.4015C14.1069 12.3998 14.1052 12.3981 14.1035 12.3964L12.0606 10.3535Z" fill="#3DDC84"/>
<path fill-rule="evenodd" clip-rule="evenodd" d="M12.0606 10.3535C11.8654 10.1583 11.5488 10.1583 11.3535 10.3535C11.1583 10.5488 11.1583 10.8654 11.3535 11.0606L13.0459 12.7531L11.3536 14.4454C11.1583 14.6407 11.1583 14.9573 11.3536 15.1526C11.5488 15.3478 11.8654 15.3478 12.0607 15.1526L14.1066 13.1066C14.3012 12.912 14.3018 12.597 14.1086 12.4015C14.1069 12.3998 14.1052 12.3981 14.1035 12.3964L12.0606 10.3535Z" fill="#3DDC84"/>
<path fill-rule="evenodd" clip-rule="evenodd" d="M8.39947 10.3535C8.59473 10.1583 8.91131 10.1583 9.10657 10.3535C9.30184 10.5488 9.30184 10.8654 9.10657 11.0606L7.41417 12.7531L9.10656 14.4454C9.30182 14.6407 9.30182 14.9573 9.10656 15.1526C8.9113 15.3478 8.59472 15.3478 8.39945 15.1526L6.35354 13.1066C6.15894 12.912 6.15828 12.597 6.35154 12.4015C6.35322 12.3998 6.3549 12.3981 6.3566 12.3964L8.39947 10.3535Z" fill="#3DDC84"/>
<path fill-rule="evenodd" clip-rule="evenodd" d="M8.39947 10.3535C8.59473 10.1583 8.91131 10.1583 9.10657 10.3535C9.30184 10.5488 9.30184 10.8654 9.10657 11.0606L7.41417 12.7531L9.10656 14.4454C9.30182 14.6407 9.30182 14.9573 9.10656 15.1526C8.9113 15.3478 8.59472 15.3478 8.39945 15.1526L6.35354 13.1066C6.15894 12.912 6.15828 12.597 6.35154 12.4015C6.35322 12.3998 6.3549 12.3981 6.3566 12.3964L8.39947 10.3535Z" fill="#3DDC84"/>
<path fill-rule="evenodd" clip-rule="evenodd" d="M8.39947 10.3535C8.59473 10.1583 8.91131 10.1583 9.10657 10.3535C9.30184 10.5488 9.30184 10.8654 9.10657 11.0606L7.41417 12.7531L9.10656 14.4454C9.30182 14.6407 9.30182 14.9573 9.10656 15.1526C8.9113 15.3478 8.59472 15.3478 8.39945 15.1526L6.35354 13.1066C6.15894 12.912 6.15828 12.597 6.35154 12.4015C6.35322 12.3998 6.3549 12.3981 6.3566 12.3964L8.39947 10.3535Z" fill="#3DDC84"/>
<path fill-rule="evenodd" clip-rule="evenodd" d="M6.91421 1C6.51639 1 6.13486 1.15804 5.85355 1.43934L2.43934 4.85355C2.15803 5.13486 2 5.51639 2 5.91421V13.5C2 14.3284 2.67157 15 3.5 15H6L5 14H3.5C3.22386 14 3 13.7761 3 13.5V6H5.5C6.32843 6 7 5.32843 7 4.5V2H10.5C10.7761 2 11 2.22386 11 2.5V9H12V2.5C12 1.67157 11.3284 1 10.5 1H6.91421ZM3.70711 5L6 2.70711V4.5C6 4.77614 5.77614 5 5.5 5H3.70711Z" fill="#6C707E"/>
</svg>

<svg width="16" height="16" viewBox="0 0 16 16" fill="none" xmlns="http://www.w3.org/2000/svg"><path fill-rule="evenodd" clip-rule="evenodd" d="M12.06 10.354a.5.5 0 0 0-.707.707l1.693 1.692-1.692 1.692a.5.5 0 0 0 .707.708l2.046-2.046a.5.5 0 0 0 .002-.705l-.005-.006-2.043-2.043z" fill="#3DDC84"/><path fill-rule="evenodd" clip-rule="evenodd" d="M12.06 10.354a.5.5 0 0 0-.707.707l1.693 1.692-1.692 1.692a.5.5 0 0 0 .707.708l2.046-2.046a.5.5 0 0 0 .002-.705l-.005-.006-2.043-2.043z" fill="#3DDC84"/><path fill-rule="evenodd" clip-rule="evenodd" d="M12.06 10.354a.5.5 0 0 0-.707.707l1.693 1.692-1.692 1.692a.5.5 0 0 0 .707.708l2.046-2.046a.5.5 0 0 0 .002-.705l-.005-.006-2.043-2.043zM8.4 10.354a.5.5 0 0 1 .707.707l-1.693 1.692 1.693 1.692a.5.5 0 0 1-.708.708l-2.045-2.046a.5.5 0 0 1-.002-.705l.005-.006 2.042-2.043z" fill="#3DDC84"/><path fill-rule="evenodd" clip-rule="evenodd" d="M8.4 10.354a.5.5 0 0 1 .707.707l-1.693 1.692 1.693 1.692a.5.5 0 0 1-.708.708l-2.045-2.046a.5.5 0 0 1-.002-.705l.005-.006 2.042-2.043z" fill="#3DDC84"/><path fill-rule="evenodd" clip-rule="evenodd" d="M8.4 10.354a.5.5 0 0 1 .707.707l-1.693 1.692 1.693 1.692a.5.5 0 0 1-.708.708l-2.045-2.046a.5.5 0 0 1-.002-.705l.005-.006 2.042-2.043z" fill="#3DDC84"/><path fill-rule="evenodd" clip-rule="evenodd" d="M6.914 1a1.5 1.5 0 0 0-1.06.44L2.439 4.853A1.5 1.5 0 0 0 2 5.914V13.5A1.5 1.5 0 0 0 3.5 15H6l-1-1H3.5a.5.5 0 0 1-.5-.5V6h2.5A1.5 1.5 0 0 0 7 4.5V2h3.5a.5.5 0 0 1 .5.5V9h1V2.5A1.5 1.5 0 0 0 10.5 1H6.914zM3.707 5L6 2.707V4.5a.5.5 0 0 1-.5.5H3.707z" fill="#6C707E"/></svg>
